X:1
T:Artistry In Rhythm
T:Artistry In Rhythm
C:Stan Kenton
Z:All Rights Reserved
L:1/8
M:4/4
K:Db
V:1 treble nm="Piano" snm="Pno."
%%MIDI program 0
%%MIDI control 7 100
%%MIDI control 10 64
V:1
"Ebm7" f4"Ebm6" B4- |"Ebm#5" B2 =AB"Ebm" d2 c2 |"Ebm7" f4"Ebm6" B4- |"Ebm#5" B2 =AB"Ebm" d2 c2 | %4
"Am7" =B4"Am6" =E4- |"Am#5" E2 ^D=E"Am" =G2 ^F2 |"D" =B3 ^D D4 |[M:2/4]"D7" =E4 | %8
[M:4/4]"Dbmaj7" F3 B, F3 B, |[M:6/4] F3 B, F4 ^F^G=B^f ||[K:Eb][M:4/4]"Fm7" g4"Fm6" c4- | %11
"Fm#5" c2 =Bc"Fm" e2 d2 |"Fm7" g4"Fm6" c4- |"Fm#5" c2 =Bc"Fm" e2 d2 |"Bm7" ^c4"Bm6" ^F4- | %15
"Bm#5" F2 ^E^F"Bm" =A2 ^G2 |"Bb7#9" ^c8 |"Bb7b9" F4"E7" ^F4 |"Ebmaj7" G8- | G8 || %20
[K:Db]"Ebm7" f4"Ebm6" B4- |"Ebm#5" B2 =AB"Ebm" d2 c2 |"Ebm7" f4"Ebm6" B4- | %23
"Ebm#5" B2 =AB"Ebm" d2 c2 |"Am7" =B4"Am6" =E4- |"Am#5" E2 ^D=E"Am" =G2 ^F2 |"D" =B3 ^D D4 | %27
[M:2/4]"D7" =E4 |[M:4/4]"Dbmaj7" F3 B, F3 B, |[M:6/4] F3 B, F4 ^F^G=B^f || %30
[K:Eb][M:4/4]"Fm7" g4"Fm6" c4- |"Fm#5" c2 =Bc"Fm" e2 d2 |"Fm7" g4"Fm6" c4- | %33
"Fm#5" c2 =Bc"Fm" e2 d2 |"Bm7" ^c4"Bm6" ^F4- |"Bm#5" F2 ^E^F"Bm" =A2 ^G2 |"Bb7#9" ^c8 | %37
"Bb7b9" F4"E7" ^F4 |"Ebmaj7" G2 G2 B2 d2 |"Db7" g2 G2 G2 _G2 |"Ebmaj9" F8- | F8 |] %42

